X: 15733
T: Golden Wreath
R: hornpipe
M: 4/4
K: Dmajor
|:A>Bd>A B>cd>B|A>Bd>A B>cd>B|(3cBA e>A (3cBA e>A|d>ef>g a>fa2|
A>Bd>A B>cd>B|A>Bd>A B>cd>B|(3cBA e>f (3gfe (3ABc|1 (3ded (3ABc d2dB:|2 (3ded (3ABc d2a>g||
(3faf d>e (3faf d>e|f>da>d b>da>d|(3cBA e>A (3cBA e>A|(3cBA e>f g>ec>g|
(3faf d>e (3faf d>e|f>da>d b>da>d|(3cBA e>f (3gfe (3ABc|1 (3ded (3ABc d2a>g:|2 (3ded (3ABc d2dB||

